src/assets/outline/Hospital.svg

<?xml version="1.0" encoding="UTF-8"?>
<svg width="24" height="24" viewBox="0 0 24 24" xmlns="http://www.w3.org/2000/svg">
 <path d="m22 22.75h-20c-0.41 0-0.75-0.34-0.75-0.75s0.34-0.75 0.75-0.75h20c0.41 0 0.75 0.34 0.75 0.75s-0.34 0.75-0.75 0.75z"/>
 <path d="m21 22.75h-18c-0.41 0-0.75-0.34-0.75-0.75v-16c0-3.02 1.73-4.75 4.75-4.75h10c3.02 0 4.75 1.73 4.75 4.75v16c0 0.41-0.34 0.75-0.75 0.75zm-17.25-1.5h16.5v-15.25c0-2.22-1.03-3.25-3.25-3.25h-10c-2.22 0-3.25 1.03-3.25 3.25v15.25z"/>
 <path d="m15 22.75h-6c-0.41 0-0.75-0.34-0.75-0.75v-6.06c0-0.93 0.76-1.69 1.69-1.69h4.13c0.93 0 1.69 0.76 1.69 1.69v6.06c-0.01 0.41-0.35 0.75-0.76 0.75zm-5.25-1.5h4.5v-5.31c0-0.1-0.08-0.19-0.19-0.19h-4.13c-0.1 0-0.18998 0.08-0.18998 0.19v5.31h0.00999z"/>
 <path d="m12 11.75c-0.41 0-0.75-0.34-0.75-0.75v-5c0-0.41 0.34-0.75 0.75-0.75s0.75 0.34 0.75 0.75v5c0 0.41-0.34 0.75-0.75 0.75z"/>
 <path d="m14.5 9.25h-5c-0.41 0-0.75-0.34-0.75-0.75s0.34-0.75 0.75-0.75h5c0.41 0 0.75 0.34 0.75 0.75s-0.34 0.75-0.75 0.75z"/>
</svg>

<svg width="24" height="24" viewBox="0 0 24 24"  xmlns="http://www.w3.org/2000/svg">
<path d="M22 22.75H2C1.59 22.75 1.25 22.41 1.25 22C1.25 21.59 1.59 21.25 2 21.25H22C22.41 21.25 22.75 21.59 22.75 22C22.75 22.41 22.41 22.75 22 22.75Z" />
<path d="M21 22.75H3C2.59 22.75 2.25 22.41 2.25 22V6C2.25 2.98 3.98 1.25 7 1.25H17C20.02 1.25 21.75 2.98 21.75 6V22C21.75 22.41 21.41 22.75 21 22.75ZM3.75 21.25H20.25V6C20.25 3.78 19.22 2.75 17 2.75H7C4.78 2.75 3.75 3.78 3.75 6V21.25Z" />
<path d="M15 22.75H9C8.59 22.75 8.25 22.41 8.25 22V15.94C8.25 15.01 9.01 14.25 9.94 14.25H14.07C15 14.25 15.76 15.01 15.76 15.94V22C15.75 22.41 15.41 22.75 15 22.75ZM9.75 21.25H14.25V15.94C14.25 15.84 14.17 15.75 14.06 15.75H9.92999C9.82999 15.75 9.74001 15.83 9.74001 15.94V21.25H9.75Z" />
<path d="M12 11.75C11.59 11.75 11.25 11.41 11.25 11V6C11.25 5.59 11.59 5.25 12 5.25C12.41 5.25 12.75 5.59 12.75 6V11C12.75 11.41 12.41 11.75 12 11.75Z" />
<path d="M14.5 9.25H9.5C9.09 9.25 8.75 8.91 8.75 8.5C8.75 8.09 9.09 7.75 9.5 7.75H14.5C14.91 7.75 15.25 8.09 15.25 8.5C15.25 8.91 14.91 9.25 14.5 9.25Z" />
</svg>
